X:129
T:Sir T.H. Liddell’s Favorite TS.129
M:C
L:1/8
Q:1/2=90
S:Thomas Sands’ MS,1810,Lincolnshire
R:.hornpipe
O:England;Lincolnshire
Z:vmp.Ruairidh Greig, 2011
K:Bb
fdB2cAF2|BABc defg|fdgf edcB|AFGA Bcde|
fdB2 cAF2|BABc defg|fdec dBcA|B2d2B2z2:|
|:Acf2Bdf2|edec dfdB|Acf=e dBgf|=ecde f_ede|
fdB2 cAF2|BABc defg|fdec dBcA|B2d2B2″rest added”z2:|]

